public/assets/icons/standard/apps_admin.svg

<?xml version="1.0"?><svg xmlns="http://www.w3.org/2000/svg" width="100" height="100" viewBox="0 0 100 100"><path fill="#fff" d="m73 21h-46c-3.3 0-6 2.7-6 6v46c0 3.3 2.7 6 6 6h46c3.3 0 6-2.7 6-6v-46c0-3.3-2.7-6-6-6z m-2 52h-42c-1.1 0-2-0.9-2-2v-42c0-1.1 0.9-2 2-2h42c1.1 0 2 0.9 2 2v42c0 1.1-0.9 2-2 2z m-26-40h-10c-1.1 0-2 0.9-2 2v10c0 1.1 0.9 2 2 2h10c1.1 0 2-0.9 2-2v-10c0-1.1-0.9-2-2-2z m20 0h-10c-1.1 0-2 0.9-2 2v10c0 1.1 0.9 2 2 2h10c1.1 0 2-0.9 2-2v-10c0-1.1-0.9-2-2-2z m-20 20h-10c-1.1 0-2 0.9-2 2v10c0 1.1 0.9 2 2 2h10c1.1 0 2-0.9 2-2v-10c0-1.1-0.9-2-2-2z m20 0h-10c-1.1 0-2 0.9-2 2v10c0 1.1 0.9 2 2 2h10c1.1 0 2-0.9 2-2v-10c0-1.1-0.9-2-2-2z"></path></svg>

<svg xmlns="http://www.w3.org/2000/svg" height="100" width="100" viewBox="0 0 100 100" fill="#fff"><path d="M73 21H27a6 6 0 0 0-6 6v46a6 6 0 0 0 6 6h46a6 6 0 0 0 6-6V27a6 6 0 0 0-6-6zm-2 52H29a2 2 0 0 1-2-2V29c0-1.1.9-2 2-2h42a2 2 0 0 1 2 2v42a2 2 0 0 1-2 2zM45 33H35a2 2 0 0 0-2 2v10c0 1.1.9 2 2 2h10a2 2 0 0 0 2-2V35a2 2 0 0 0-2-2zm20 0H55a2 2 0 0 0-2 2v10c0 1.1.9 2 2 2h10a2 2 0 0 0 2-2V35a2 2 0 0 0-2-2zM45 53H35a2 2 0 0 0-2 2v10c0 1.1.9 2 2 2h10a2 2 0 0 0 2-2V55a2 2 0 0 0-2-2zm20 0H55a2 2 0 0 0-2 2v10c0 1.1.9 2 2 2h10a2 2 0 0 0 2-2V55a2 2 0 0 0-2-2z"/></svg>
